view/frontend/web/svg/outline/guitar-amp.svg

<svg xmlns="http://www.w3.org/2000/svg" width="24" height="24" viewBox="0 0 24 24"><!--Boxicons v3.0.8 https://boxicons.com | License  https://docs.boxicons.com/free--><path d="M20 6h-3V4c0-1.1-.9-2-2-2H9c-1.1 0-2 .9-2 2v2H4c-1.1 0-2 .9-2 2v12c0 1.1.9 2 2 2h16c1.1 0 2-.9 2-2V8c0-1.1-.9-2-2-2M9 4h6v2H9zM4 20v-5h16v-2H4V8h16v12z"/><path d="M13.5 9a1.5 1.5 0 1 0 0 3 1.5 1.5 0 1 0 0-3m4 0a1.5 1.5 0 1 0 0 3 1.5 1.5 0 1 0 0-3m-7 9a.5.5 0 1 0 0 1 .5.5 0 1 0 0-1m-2 0a.5.5 0 1 0 0 1 .5.5 0 1 0 0-1m-2 0a.5.5 0 1 0 0 1 .5.5 0 1 0 0-1m6 0a.5.5 0 1 0 0 1 .5.5 0 1 0 0-1m2 0a.5.5 0 1 0 0 1 .5.5 0 1 0 0-1m2 0a.5.5 0 1 0 0 1 .5.5 0 1 0 0-1m2 0a.5.5 0 1 0 0 1 .5.5 0 1 0 0-1m-11-2a.5.5 0 1 0 0 1 .5.5 0 1 0 0-1m-2 0a.5.5 0 1 0 0 1 .5.5 0 1 0 0-1m4 0a.5.5 0 1 0 0 1 .5.5 0 1 0 0-1m2 0a.5.5 0 1 0 0 1 .5.5 0 1 0 0-1m2 0a.5.5 0 1 0 0 1 .5.5 0 1 0 0-1m2 0a.5.5 0 1 0 0 1 .5.5 0 1 0 0-1m2 0a.5.5 0 1 0 0 1 .5.5 0 1 0 0-1"/></svg>

<svg xmlns="http://www.w3.org/2000/svg" width="24" height="24"><!--Boxicons v3.0 https://boxicons.com | License  https://docs.boxicons.com/free--><path d="M20 6h-3V4c0-1.1-.9-2-2-2H9c-1.1 0-2 .9-2 2v2H4c-1.1 0-2 .9-2 2v12c0 1.1.9 2 2 2h16c1.1 0 2-.9 2-2V8c0-1.1-.9-2-2-2M9 4h6v2H9zM4 20v-5h16v-2H4V8h16v12z"/><path d="M13.5 9a1.5 1.5 0 1 0 0 3 1.5 1.5 0 1 0 0-3M17.5 9a1.5 1.5 0 1 0 0 3 1.5 1.5 0 1 0 0-3M10.5 18a.5.5 0 1 0 0 1 .5.5 0 1 0 0-1M8.5 18a.5.5 0 1 0 0 1 .5.5 0 1 0 0-1M6.5 18a.5.5 0 1 0 0 1 .5.5 0 1 0 0-1M12.5 18a.5.5 0 1 0 0 1 .5.5 0 1 0 0-1M14.5 18a.5.5 0 1 0 0 1 .5.5 0 1 0 0-1M16.5 18a.5.5 0 1 0 0 1 .5.5 0 1 0 0-1M18.5 18a.5.5 0 1 0 0 1 .5.5 0 1 0 0-1M7.5 16a.5.5 0 1 0 0 1 .5.5 0 1 0 0-1M5.5 16a.5.5 0 1 0 0 1 .5.5 0 1 0 0-1M9.5 16a.5.5 0 1 0 0 1 .5.5 0 1 0 0-1M11.5 16a.5.5 0 1 0 0 1 .5.5 0 1 0 0-1M13.5 16a.5.5 0 1 0 0 1 .5.5 0 1 0 0-1M15.5 16a.5.5 0 1 0 0 1 .5.5 0 1 0 0-1M17.5 16a.5.5 0 1 0 0 1 .5.5 0 1 0 0-1"/></svg>
